X: 115
T:Jacksons Morning Brush. JC.115
M:6/8
L:1/8
Q:120
S:John Clare,Poet,Helpston. (1793-1864)
R:Jig
O:England
A:Northamptonshire
N:
Z:vmp.P. Headford
K:D
D|DFE EFD|DFA AFA|BABd2e|geee2D|!
DFD EFD|DFA AFA|BABd2e|fede2:|!
|:g|fed fad|fda fdB|AFAd2f|geee2g|!
fed fad|fda fdB|AFAd2"qu's"A/e/|fddd2:|!
|:g|fdf eBe|dcd AFA|DFAd2f|geee2g|!
fdf ece|dcd AFA|DFAd2e|fddd2:|]
